source/img/bg-icon-camera.svg

<svg width="59" height="52" viewBox="0 0 59 52" fill="none" xmlns="http://www.w3.org/2000/svg">
<path d="M51.6795 9.18921H48.9575C48.4834 9.18921 48.0992 9.5734 48.0992 10.0475C48.0992 10.5217 48.4834 10.9059 48.9575 10.9059H51.6795C52.1536 10.9059 52.5378 10.5217 52.5378 10.0475C52.5378 9.5734 52.1535 9.18921 51.6795 9.18921Z" fill="#AE7C78"/>
<path d="M36.4066 13.3298C31.607 13.3298 27.7023 17.2362 27.7023 22.0375C27.7023 26.8372 31.6069 30.7421 36.4066 30.7421C41.208 30.7421 45.1142 26.8372 45.1142 22.0375C45.1142 17.2362 41.208 13.3298 36.4066 13.3298ZM36.4066 29.0255C32.5536 29.0255 29.419 25.8908 29.419 22.0377C29.419 18.1828 32.5536 15.0465 36.4066 15.0465C40.2613 15.0465 43.3975 18.1827 43.3975 22.0377C43.3975 25.8907 40.2614 29.0255 36.4066 29.0255Z" fill="#AE7C78"/>
<path d="M55.3814 4.60615H44.9537L43.9443 1.81646C43.7816 1.36715 43.2863 0 41.8869 0H28.5343C27.1349 0 26.6396 1.36715 26.4767 1.8168L25.4674 4.60615H16.977V2.53116C16.977 1.40114 16.0577 0.48181 14.9277 0.48181H11.1036C9.97545 0.48181 9.05761 1.40114 9.05761 2.53116V4.64323C7.51639 4.87967 6.33223 6.21569 6.33223 7.82352V25.3803L2.44342 26.1346C0.808584 26.4532 -0.262271 28.0416 0.0559987 29.6743L3.90991 49.5583C4.19121 50.9969 5.4604 52 6.87779 52C7.06639 52 7.25774 51.9823 7.44967 51.9453L15.8334 50.3187C16.2987 50.2285 16.6028 49.778 16.5125 49.3126C16.4222 48.8473 15.9715 48.5429 15.5064 48.6335L7.12419 50.2598C6.41784 50.3961 5.7322 49.933 5.59487 49.2303L1.74096 29.3468C1.60363 28.6422 2.0661 27.9571 2.77096 27.8195L23.6748 23.7647C24.0137 23.6998 24.3599 23.7714 24.6498 23.9672C24.9396 24.1631 25.1351 24.4575 25.2004 24.798L29.0575 44.678C29.1949 45.3826 28.7324 46.0677 28.0275 46.2052L19.6405 47.8318C19.1752 47.9221 18.8711 48.3726 18.9613 48.8379C19.0516 49.3032 19.502 49.607 19.9673 49.5172L28.3551 47.8903C29.9899 47.5717 31.0608 45.9833 30.7425 44.3504L29.6994 38.9747H39.2801C39.7543 38.9747 40.1385 38.5905 40.1385 38.1163C40.1385 37.6422 39.7543 37.258 39.2801 37.258H29.3664L28.462 32.5962C30.7334 34.3052 33.5171 35.2528 36.4063 35.2528C42.1343 35.2528 47.0221 31.5909 48.8528 26.4862H56.8788V35.7572C56.8788 36.5847 56.2071 37.258 55.3814 37.258H43.4838C43.0096 37.258 42.6255 37.6422 42.6255 38.1163C42.6255 38.5905 43.0096 38.9747 43.4838 38.9747H55.3814C57.1536 38.9747 58.5955 37.5313 58.5955 35.7572V7.82352C58.5955 6.0494 57.1536 4.60615 55.3814 4.60615ZM28.0908 2.40127C28.2553 1.94704 28.4045 1.71678 28.5343 1.71678H41.8869C42.0484 1.71678 42.2172 2.08906 42.3302 2.40092L43.1282 4.60615H27.2929L28.0908 2.40127ZM23.1921 22.0377C23.1921 22.0617 23.1933 22.0857 23.1934 22.1096L16.977 23.3155V19.3063H23.4765C23.2906 20.188 23.1921 21.1014 23.1921 22.0377ZM10.7742 2.53116C10.7742 2.3508 10.925 2.19847 11.1035 2.19847H14.9276C15.111 2.19847 15.2603 2.34771 15.2603 2.53116V4.60615H10.7742V2.53116ZM8.04889 7.82352C8.04889 6.99609 8.72068 6.32281 9.54628 6.32281H9.91582H15.2603V23.6484L12.3545 24.212V14.5314C12.3545 13.707 11.6839 13.0363 10.8594 13.0363H8.04889V7.82352ZM8.04889 14.753H10.6379V24.5451L8.04889 25.0473V14.753ZM36.4066 33.5359C33.1748 33.5359 30.0945 32.1738 27.9181 29.7919L26.8861 24.4725C26.7343 23.6825 26.2815 22.9979 25.611 22.5448C25.3906 22.3959 25.1556 22.2787 24.9113 22.1931C24.9106 22.1413 24.9086 22.0896 24.9086 22.0377C24.9086 15.6958 30.0666 10.5363 36.4064 10.5363C42.7483 10.5363 47.9076 15.6959 47.9076 22.0377C47.9077 28.3778 42.7484 33.5359 36.4066 33.5359ZM56.8788 24.7693H49.3397C49.5258 23.8876 49.6243 22.974 49.6243 22.0377C49.6243 21.1014 49.5258 20.188 49.3398 19.3063H56.8788V24.7693ZM56.8788 17.5896H48.8535C47.0231 12.4829 42.1349 8.81964 36.4066 8.81964C30.6797 8.81964 25.7927 12.483 23.9627 17.5896H16.9769V6.32281H26.0695H44.3514H55.3813C56.207 6.32281 56.8787 6.99609 56.8787 7.82352V17.5896H56.8788Z" fill="#AE7C78"/>
<path d="M26.0021 43.462C26.2035 43.1611 26.2768 42.8087 26.2087 42.4722L23.2915 27.8132C23.1364 27.0466 22.3362 26.5781 21.4685 26.7448L5.54624 29.8329C4.67509 30.0013 4.10825 30.7378 4.25714 31.5173L7.17559 46.166C7.24036 46.5049 7.44064 46.8032 7.73979 47.006C8.00153 47.1834 8.32335 47.2766 8.65661 47.2766C8.77048 47.2766 8.88572 47.2658 9.0004 47.2436L24.9194 44.1554C25.3707 44.0683 25.7653 43.8155 26.0021 43.462ZM7.63863 39.6604L6.00299 31.493L21.6689 28.4545L22.6194 33.2307L20.6108 33.6208C16.7799 34.3637 15.508 35.511 14.2781 36.6203C13.0869 37.6948 11.8564 38.8038 7.63863 39.6604ZM8.80161 45.5335L8.40174 43.4708L7.97566 41.3432C12.6603 40.3896 14.127 39.0685 15.4279 37.8951C16.5802 36.8558 17.5752 35.9581 20.9378 35.3061L22.9543 34.9144L24.4629 42.4954L8.80161 45.5335Z" fill="#AE7C78"/>
</svg>

<svg width="59" height="52" fill="none" xmlns="http://www.w3.org/2000/svg"><path d="M51.68 9.19h-2.722a.858.858 0 100 1.716h2.721a.858.858 0 100-1.717zm-15.273 4.14c-4.8 0-8.705 3.906-8.705 8.708 0 4.8 3.905 8.704 8.705 8.704 4.801 0 8.707-3.905 8.707-8.704 0-4.802-3.906-8.708-8.707-8.708zm0 15.696a6.996 6.996 0 01-6.988-6.988c0-3.855 3.135-6.992 6.988-6.992a6.999 6.999 0 016.99 6.992c0 3.853-3.136 6.988-6.99 6.988z" fill="#AE7C78"/><path d="M55.381 4.606H44.954l-1.01-2.79C43.782 1.367 43.286 0 41.887 0H28.534c-1.4 0-1.894 1.367-2.057 1.817l-1.01 2.79h-8.49V2.53c0-1.13-.92-2.05-2.05-2.05h-3.823a2.05 2.05 0 00-2.046 2.05v2.112a3.221 3.221 0 00-2.726 3.18V25.38l-3.889.755a3.023 3.023 0 00-2.387 3.54L3.91 49.557a3.03 3.03 0 003.54 2.387l8.383-1.626a.858.858 0 10-.327-1.686L7.124 50.26a1.308 1.308 0 01-1.53-1.03L1.742 29.347a1.305 1.305 0 011.03-1.527l20.904-4.055c.339-.065.685.006.975.202.29.196.485.49.55.831l3.858 19.88a1.304 1.304 0 01-1.03 1.527l-8.387 1.627a.859.859 0 00.326 1.685l8.388-1.627a3.023 3.023 0 002.387-3.54L29.7 38.975h9.581a.858.858 0 100-1.717h-9.914l-.904-4.662a13.215 13.215 0 007.944 2.657c5.728 0 10.616-3.662 12.447-8.767h8.026v9.271a1.5 1.5 0 01-1.498 1.501H43.484a.858.858 0 100 1.717H55.38a3.22 3.22 0 003.215-3.218V7.824a3.22 3.22 0 00-3.215-3.218zm-27.29-2.205c.164-.454.313-.684.443-.684h13.353c.161 0 .33.372.443.684l.798 2.205H27.293l.798-2.205zm-4.899 19.637l.001.072-6.216 1.206v-4.01h6.5a13.227 13.227 0 00-.285 2.732zM10.774 2.53c0-.18.151-.333.33-.333h3.824c.183 0 .332.15.332.333v2.075h-4.486V2.531zM8.05 7.824a1.5 1.5 0 011.497-1.501h5.714v17.325l-2.905.564v-9.68c0-.825-.671-1.496-1.496-1.496H8.05V7.824zm0 6.929h2.589v9.792l-2.59.502V14.753zm28.358 18.783a11.501 11.501 0 01-8.489-3.744l-1.032-5.32a2.995 2.995 0 00-1.275-1.927 3.05 3.05 0 00-.7-.352l-.002-.155c0-6.342 5.158-11.502 11.497-11.502 6.342 0 11.502 5.16 11.502 11.502 0 6.34-5.16 11.498-11.501 11.498zm20.472-8.767h-7.54a13.215 13.215 0 000-5.463h7.54v5.463zm0-7.18h-8.026c-1.83-5.106-6.718-8.77-12.446-8.77-5.727 0-10.614 3.664-12.444 8.77h-6.986V6.324H55.38a1.5 1.5 0 011.498 1.5v9.767z" fill="#AE7C78"/><path d="M26.002 43.462c.201-.3.275-.653.207-.99L23.29 27.813c-.155-.766-.955-1.235-1.823-1.068L5.546 29.833c-.87.168-1.438.905-1.289 1.684l2.919 14.649c.064.339.265.637.564.84.262.177.583.27.917.27.113 0 .229-.01.343-.032l15.92-3.089c.45-.087.845-.34 1.082-.693zM7.64 39.66l-1.636-8.167 15.666-3.038.95 4.776-2.008.39c-3.831.743-5.103 1.89-6.333 3-1.191 1.074-2.422 2.183-6.64 3.04zm1.163 5.873l-.4-2.062-.426-2.128c4.684-.953 6.151-2.275 7.452-3.448 1.152-1.04 2.147-1.937 5.51-2.589l2.016-.392 1.509 7.581-15.661 3.038z" fill="#AE7C78"/></svg>
